X:586
T:Little Brown Jug
C:Joseph Eastburn Winner (1837-1918) - B music added
S:Colin Hume's website,  colinhume.com  - chords can also be printed below the stave.
Q:1/2=112
M:2/2
R:Reel
L:1/4
K:D
P:A
"D"FA A2 | "G"GB B2 | "A7"c/c/c Bc | "D"de f2 | "D"FA A2 | "G"GB B2 | "A7"c/c/c Bc | "D"ed d2 :|
P:B
|: "D"fd AF | "G"GB B2 | "A7"c/c/c Bc | "D"de f2 | "D"fd AF | "Em"GB B2 | "A7"c/c/c Bc | "D"ed d2 :|

